X:19
T:The Munster Jig
B:Terry "Cuz" Teahan "Sliabh Luachra on Parade" 1980
Z:Patrick Cavanagh
M:6/8
L:1/8
R:Jig
K:G
A | GFG AGA | Bdd gdB | GAB cBA | BGE GED | 
GFG AGA | Bdd gdB | cBA BGE | AGG G2 :| 
d | gfg efg | afa edB | gfg efg | afd def | 
gfe agf | gfe fdB | cBA BGE | AGG G2 :|| 

